X:549
L:1/8
M:3/4
K:G
"G" d>c d>g B2 |"D7" Bc A2 A2 | c>B c2 f2 |"G" g2 fe d2 | d>c dg B2 |"D7" Bc A2 A2 | c>B c2 f2 | 
"G" g2 g2 z2 ::"D7" f>e d2 c2 |"G" B>e d2 B2 |"D7" A>d c3 F |"G" GA Bc de |"D7" f>e d2 c2 | 
"G" B>e d3 B |"D7" Ac df a2 |"G" g2 g2 z2 ::[K:C]"C" G>c e2 d2 | c2 B>A G2 |"G7" g2 B>A B2 | 
"C" g2 c>B c2 | G>c e2 d2 | c2 B>A G2 |"C" g2 c>e"G7" d>B |"C" c2 c2 z2 :|

